X:1
T:St. John’s, Westminster, CM
T:St. John’s, Westminster, CM
T:James Turle, 1862
T:Public Domain Courtesy of the Cyber Hymnal™
C:James Turle, 1862
Z:Public Domain
Z:Courtesy of the Cyber Hymnal™
%%score ( 1 2 ) ( 3 4 )
L:1/8
Q:1/4=110
M:4/4
K:F
V:1 treble 
V:2 treble 
V:3 bass 
V:4 bass 
V:1
 [CF]2 | [CE]2 [CF]2 [DG]2 [FA]2 | [FB]2 [EB]2 [FA]2 [CA]2 | [DG]2 [Cc]2 [Fc]2 [F=B]2 | %4
 [Ec]6 [Fc]2 | [Ec]2 [Fc]2 [Ec]2 [DA]2 | [^CA]2 [DA]2 [CA]2 [=CF]2 | [_EF]2 [DF]2 [DF]2 F2 | %8
 [CF]6 |] %9
V:2
 x2 | x8 | x8 | x8 | x8 | x8 | x8 | x6 (CB,) | x6 |] %9
V:3
 [F,A,]2 | [C,G,]2 [F,A,]2 [B,D]2 [A,C]2 | [G,D]2 [C,C]2 [F,C]2 [F,A,]2 | %3
 [F,=B,]2 [E,G,]2 [D,A,]2 [D,F,]2 | [C,G,]6 [F,A,]2 | [C,G,]2 [F,A,]2 [C,G,]2 [D,F,]2 | %6
 [A,,E,]2 [D,F,]2 [A,,E,]2 [F,A,]2 | [F,C]2 [F,B,]2 [F,B,]2 (A,G,) | [F,A,]6 |] %9
V:4
 x2 | x8 | x8 | x8 | x8 | x8 | x8 | x6 F,2 | x6 |] %9

